packages/icons/src/assets/car-search.svg

<svg xmlns="http://www.w3.org/2000/svg" width="25" height="24"><g clip-path="url(#a)"><path fill-rule="evenodd" d="M5.29 18a.75.75 0 0 1-.75.75h-.75a.75.75 0 0 1-.75-.75v-5.25c0-1.24 1.01-2.25 2.25-2.25h15.906l-1.077-5.649c-.154-1.483-1.262-2.601-2.58-2.601H6.54c-1.317 0-2.425 1.118-2.57 2.538L3.169 9H1.54v1.5h.77a3.7 3.7 0 0 0-.77 2.25V18c0 1.24 1.01 2.25 2.25 2.25h.75c1.24 0 2.25-1.01 2.25-2.25h3v-1.5h-4.5zm.164-12.994c.072-.705.55-1.256 1.086-1.256h11c.537 0 1.015.551 1.096 1.319L19.384 9H4.695zM8.29 12.75h-3v1.5h3zm10.535 5.724 2.759 2.76-1.06 1.06-2.76-2.76a4.1 4.1 0 0 1-2.335.73 4.13 4.13 0 0 1-4.126-4.125 4.13 4.13 0 0 1 4.125-4.125 4.13 4.13 0 0 1 4.125 4.125c0 .866-.27 1.67-.729 2.335m-3.396-4.96a2.63 2.63 0 0 0-2.626 2.625 2.63 2.63 0 0 0 2.625 2.625 2.63 2.63 0 0 0 2.625-2.625 2.63 2.63 0 0 0-2.625-2.625" clip-rule="evenodd"/></g><defs><clipPath id="a"><path d="M.04 0h24v24h-24z"/></clipPath></defs></svg>

<svg width="100%" height="100%" viewBox="0 0 24 24" version="1.1" xmlns="http://www.w3.org/2000/svg" xmlns:xlink="http://www.w3.org/1999/xlink" xml:space="preserve" style="fill-rule:evenodd;clip-rule:evenodd;stroke-linejoin:round;stroke-miterlimit:2;"><g transform="matrix(1,0,0,1,0.438,-0.272)"><path d="M5.29,18C5.29,18.411 4.951,18.75 4.54,18.75L3.79,18.75C3.379,18.75 3.04,18.411 3.04,18L3.04,12.75C3.04,11.51 4.05,10.5 5.29,10.5L21.196,10.5L20.119,4.851C19.965,3.368 18.857,2.25 17.539,2.25L6.54,2.25C5.223,2.25 4.115,3.368 3.97,4.788L3.169,9L1.54,9L1.54,10.5L2.31,10.5C1.813,11.145 1.542,11.936 1.54,12.75L1.54,18C1.54,19.24 2.55,20.25 3.79,20.25L4.54,20.25C5.78,20.25 6.79,19.24 6.79,18L9.79,18L9.79,16.5L5.29,16.5L5.29,18ZM5.454,5.006C5.526,4.301 6.004,3.75 6.54,3.75L17.54,3.75C18.077,3.75 18.555,4.301 18.636,5.069L19.384,9L4.695,9L5.454,5.006ZM8.29,12.75L5.29,12.75L5.29,14.25L8.29,14.25L8.29,12.75ZM18.825,18.474L21.584,21.234L20.524,22.294L17.764,19.534C17.078,20.009 16.263,20.264 15.429,20.264C13.167,20.262 11.306,18.401 11.303,16.139C11.306,13.877 13.166,12.017 15.428,12.014C17.69,12.017 19.55,13.877 19.553,16.139C19.553,17.005 19.283,17.809 18.824,18.474M15.428,13.514C13.989,13.516 12.805,14.7 12.802,16.139C12.805,17.578 13.988,18.761 15.427,18.764C16.866,18.761 18.049,17.578 18.052,16.139C18.049,14.7 16.866,13.517 15.427,13.514"/></g></svg>
